packages/swarm-icons/src/icons/large/Pin Meetup.svg

<svg xmlns="http://www.w3.org/2000/svg" width="28" height="28" viewBox="0 0 28 28">
  <g fill="none" fill-rule="evenodd">
    <path fill="#FF1154" fill-rule="nonzero" d="M14,27.125 C7.66666667,20.7916667 4.5,15.25 4.5,10.5 C4.5,5.25329488 8.75329488,1 14,1 C19.2467051,1 23.5,5.25329488 23.5,10.5 C23.5,15.25 20.3333333,20.7916667 14,27.125 Z"/>
    <path fill="#FFF" fill-rule="nonzero" d="M15.6674956,13.2170138 C15.6681712,14.1561877 16.3138305,14.9860866 17.2293416,15.2681541 C17.6881884,15.4096489 18.1614814,15.476757 18.6417896,15.4965061 C18.9847035,15.5103353 19.3272018,15.487966 19.6440295,15.3405028 C19.8931475,15.2243374 20.0105354,15.0324751 19.9992591,14.7768044 C19.9879828,14.5194838 19.864619,14.3269907 19.6010029,14.224606 C19.5093894,14.1890382 19.4163729,14.1601182 19.3190953,14.1442995 C19.0283537,14.0959215 18.7362091,14.0551131 18.4468706,14.0014946 C17.9693685,13.9126479 17.7692012,13.6766777 17.7628615,13.2258451 C17.7572493,12.8270298 17.8731822,12.450875 18.0046005,12.0786991 C18.2449364,11.397525 18.5691432,10.7482795 18.8796312,10.0937449 C19.1795186,9.46162821 19.493852,8.83475206 19.7056594,8.16900851 C19.8223198,7.80343184 19.8779738,7.43683618 19.7719142,7.05874042 C19.6105124,6.48485202 19.2422397,6.10020558 18.6071812,5.98957181 C18.0256981,5.88854572 17.447073,5.87704563 16.9212439,6.20084349 C16.7464352,6.30812913 16.57833,6.28246016 16.4264896,6.15741489 C16.3105567,6.06230866 16.200236,5.96162223 16.0867455,5.86389574 C15.5504196,5.40156305 14.8413635,5.37885401 14.2655445,5.8010577 C14.033315,5.97152104 13.8377205,6.18279272 13.5853808,6.33088669 C13.3598547,6.46316198 13.1325618,6.50067071 12.8827164,6.37625624 C12.6448227,6.25781018 12.3985109,6.153533 12.1528745,6.04954696 C11.9040683,5.94459045 11.6630049,5.81493544 11.3828641,5.79285721 C10.4969208,5.7224495 9.56971762,6.21409043 9.17889237,6.96140212 C9.00548673,7.29209033 8.86383141,7.63568582 8.72955506,7.98151339 C8.10967016,9.58017132 7.60467883,11.2129899 7.08207153,12.8402767 C6.84807524,13.5684701 7.1243187,14.2851634 7.78473594,14.6784471 C8.29996427,14.9851161 8.8641432,15.0608614 9.44812061,14.8969487 C9.92136161,14.7639941 10.1804048,14.4083163 10.3615532,14.0087731 C10.9634583,12.6833029 11.5054484,11.3354149 12.0791888,9.99936655 C12.2370571,9.63180042 12.3899887,9.26258448 12.5574184,8.89894875 C12.7265629,8.53172228 13.2125353,8.40662849 13.5008345,8.65016835 C13.6766825,8.7988446 13.7231907,8.99672377 13.7059385,9.20828659 C13.6869195,9.43435796 13.5931755,9.64296084 13.5050436,9.85059325 C13.1318343,10.7318785 12.7516099,11.610495 12.3766338,12.491101 C12.3008695,12.669134 12.2187655,12.8458569 12.1853004,13.0369913 C12.1278796,13.3651078 12.2670406,13.6560067 12.5546123,13.7718324 C12.8478482,13.8899874 13.1523084,13.9097365 13.4564048,13.8067209 C13.8102313,13.6869647 14.021675,13.4282855 14.1844799,13.1294773 C14.7441379,12.1031065 15.2995348,11.0744065 15.8587771,10.0480842 C16.1170928,9.57391178 16.3799814,9.10201995 16.6439612,8.63075892 C16.7419143,8.4560255 16.8568079,8.29051156 17.0400868,8.18191578 C17.205386,8.08418929 17.3836763,8.07691075 17.5531846,8.16580595 C17.7184838,8.2523235 17.7297081,8.41031628 17.7226929,8.56627108 C17.7187956,8.65016835 17.6938006,8.73212468 17.6592442,8.81010208 C17.5866498,8.97231641 17.5189919,9.13685988 17.4386028,9.29582313 C16.9734163,10.2096192 16.5012146,11.1198731 16.0402372,12.0356587 C15.845786,12.4222946 15.643488,12.8106288 15.6674956,13.2170138 Z"/>
  </g>
</svg>

<svg xmlns="http://www.w3.org/2000/svg" width="28" height="28"><g fill="none" fill-rule="nonzero"><path fill="#FF1154" d="M14 27.125C7.667 20.792 4.5 15.25 4.5 10.5a9.5 9.5 0 0119 0c0 4.75-3.167 10.292-9.5 16.625z"/><path fill="#FFF" d="M15.667 13.217c.001.94.647 1.77 1.562 2.051.46.142.932.209 1.413.229.343.013.685-.009 1.002-.156.25-.117.367-.309.355-.564a.578.578 0 00-.398-.552 1.398 1.398 0 00-.282-.08c-.29-.05-.583-.09-.872-.144-.478-.088-.678-.324-.684-.775-.006-.399.11-.775.242-1.147.24-.681.564-1.33.875-1.985.3-.632.614-1.26.826-1.925.116-.366.172-.732.066-1.11-.161-.574-.53-.959-1.165-1.07-.581-.1-1.16-.112-1.686.212-.175.107-.343.081-.495-.044-.115-.095-.226-.195-.34-.293-.536-.462-1.245-.485-1.82-.063-.233.17-.428.382-.68.53-.226.132-.453.17-.703.045a13.03 13.03 0 00-.73-.326c-.249-.105-.49-.235-.77-.257-.886-.07-1.813.421-2.204 1.168a9.89 9.89 0 00-.45 1.02c-.62 1.6-1.124 3.232-1.647 4.86-.234.727.042 1.444.703 1.837.515.307 1.08.383 1.663.219.473-.133.732-.489.914-.888.601-1.326 1.143-2.674 1.717-4.01.158-.367.311-.736.478-1.1.17-.367.656-.492.944-.249.176.149.222.347.205.558-.02.226-.113.435-.201.643-.373.88-.753 1.76-1.128 2.64-.076.178-.158.355-.192.546-.057.328.082.619.37.735.293.118.597.138.901.035.354-.12.566-.379.728-.678.56-1.026 1.116-2.055 1.675-3.08.258-.475.521-.947.785-1.418.098-.175.213-.34.396-.45a.506.506 0 01.513-.015c.165.086.177.244.17.4a.685.685 0 01-.064.244c-.072.162-.14.327-.22.486-.466.914-.938 1.824-1.399 2.74-.194.386-.397.775-.373 1.181z"/></g></svg>
